flaticon/productivity-and-development/key.svg

<svg xmlns="http://www.w3.org/2000/svg" width="32" height="32" viewBox="0 0 24 24">
    <path d="M 21.597656 9.945312 L 24 7.542969 L 21.664062 5.207031 L 22.175781 4.691406 C 22.757812 4.214844 23.433594 2.371094 22.175781 1.261719 C 20.652344 -0.0820312 19.203125 0.800781 18.742188 1.261719 L 9.601562 10.40625 C 9.597656 10.40625 9.597656 10.40625 9.597656 10.40625 C 8.75 10.027344 7.808594 9.816406 6.820312 9.816406 C 3.050781 9.816406 0 12.867188 0 16.632812 C 0 20.398438 3.050781 23.453125 6.820312 23.453125 C 10.585938 23.453125 13.636719 20.398438 13.636719 16.632812 C 13.636719 15.636719 13.421875 14.691406 13.035156 13.835938 L 16.34375 10.523438 L 18.167969 12.347656 L 20.570312 9.941406 L 18.75 8.121094 L 19.261719 7.609375 Z M 19.191406 9.941406 L 18.167969 10.96875 L 16.34375 9.148438 L 11.855469 13.632812 C 12.378906 14.511719 12.683594 15.535156 12.683594 16.632812 C 12.683594 19.871094 10.058594 22.496094 6.820312 22.496094 C 3.578125 22.496094 0.953125 19.871094 0.953125 16.632812 C 0.953125 13.394531 3.578125 10.796875 6.820312 10.769531 C 8.320312 10.757812 9.800781 11.582031 9.800781 11.582031 L 19.433594 1.949219 C 19.980469 1.402344 20.9375 1.402344 21.488281 1.949219 C 22.292969 2.75 21.761719 3.730469 21.488281 4.003906 L 20.285156 5.207031 L 22.621094 7.542969 L 21.597656 8.566406 L 19.261719 6.230469 L 17.371094 8.121094 Z M 19.191406 9.941406"/>
    <path d="M 6.808594 13.777344 C 5.234375 13.777344 3.957031 15.054688 3.957031 16.628906 C 3.957031 18.203125 5.234375 19.480469 6.808594 19.480469 C 8.382812 19.480469 9.660156 18.203125 9.660156 16.628906 C 9.660156 15.054688 8.382812 13.777344 6.808594 13.777344 Z M 6.808594 18.507812 C 5.773438 18.507812 4.933594 17.667969 4.933594 16.628906 C 4.933594 15.59375 5.773438 14.753906 6.808594 14.753906 C 7.84375 14.753906 8.6875 15.59375 8.6875 16.628906 C 8.6875 17.667969 7.84375 18.507812 6.808594 18.507812 Z M 6.808594 18.507812"/>
</svg>

<svg xmlns="http://www.w3.org/2000/svg" width="32" height="32" viewBox="0 0 24 24">
    <path d="M21.598 9.945L24 7.543l-2.336-2.336.512-.516c.582-.476 1.258-2.32 0-3.43-1.524-1.343-2.973-.46-3.434 0l-9.14 9.145h-.004a6.794 6.794 0 0 0-2.778-.59 6.82 6.82 0 1 0 6.816 6.816c0-.995-.214-1.94-.6-2.796l3.308-3.313 1.824 1.825L20.57 9.94l-1.82-1.82.512-.512zm-2.407-.004l-1.023 1.028-1.824-1.82-4.489 4.484a5.863 5.863 0 0 1-5.035 8.863 5.864 5.864 0 0 1-5.867-5.863c0-3.238 2.625-5.836 5.867-5.863 1.5-.012 2.98.812 2.98.812l9.634-9.633c.546-.547 1.503-.547 2.054 0 .805.801.274 1.781 0 2.055l-1.203 1.203 2.336 2.336-1.023 1.023-2.336-2.336-1.89 1.891zm0 0"/>
    <path d="M6.809 13.777a2.852 2.852 0 1 0 .001 5.705 2.852 2.852 0 0 0-.001-5.705zm0 4.73a1.876 1.876 0 1 1 .002-3.752 1.876 1.876 0 0 1-.002 3.753zm0 0"/>
</svg>
